docs/figs/overflow-panic.svg

<svg class="typst-doc" viewBox="0 0 595.2755905511812 841.8897637795276" width="595.2755905511812pt" height="841.8897637795276pt" xmlns="http://www.w3.org/2000/svg" xmlns:xlink="http://www.w3.org/1999/xlink" xmlns:h5="http://www.w3.org/1999/xhtml">
    <path class="typst-shape" fill="#ffffff" fill-rule="nonzero" d="M 0 0v 841.8898 h 595.2756 v -841.8898 Z "/>
    <g>
        <g class="typst-text" transform="matrix(1 0 0 -1 138.42779527559057 449.96988188976377)">
            <use xlink:href="#gF66222B444F77B41A1603DA05174ADF4" x="0" y="0" fill="#ff4136" fill-rule="nonzero"/>
            <use xlink:href="#g9E282593F0D7BA037ECD074EFB3D3A9" x="28.349999999999998" y="0" fill="#ff4136" fill-rule="nonzero"/>
            <use xlink:href="#gF17BEABEDB591A870FDF2A74606BA908" x="80.64" y="0" fill="#ff4136" fill-rule="nonzero"/>
            <use xlink:href="#g2F162308DB33CB3A5DDE667560A0A868" x="126.18" y="0" fill="#ff4136" fill-rule="nonzero"/>
            <use xlink:href="#g795AB92540B2721C0332C6310D0217DD" x="181.62" y="0" fill="#ff4136" fill-rule="nonzero"/>
            <use xlink:href="#gB98A96A4CA990D1A29347EB1684F946A" x="210.6" y="0" fill="#ff4136" fill-rule="nonzero"/>
            <use xlink:href="#g4B89F5E95DB50D8AE9AD926099F1D62E" x="251.64" y="0" fill="#ff4136" fill-rule="nonzero"/>
            <use xlink:href="#g1F27B3B59BA0507B51E4591C51A20B1" x="290.07" y="0" fill="#ff4136" fill-rule="nonzero"/>
        </g>
    </g>
    <defs id="glyph">
        <symbol id="gF66222B444F77B41A1603DA05174ADF4" overflow="visible">
            <path d="M 0 0m 3.2400002 22.77 c 0 -4.049999 0.4499998 -24.300001 20.880001 -41.940002 l 2.7000008 2.8799992 c -2.880001 3.2400007 -13.230001 15.300001 -13.230001 39.06 c 0 23.760002 10.530001 35.820004 13.230001 38.97 l -2.5200005 3.0600014 c -11.790001 -10.170002 -21.060001 -25.650002 -21.060001 -42.030003 Z "/>
        </symbol>
        <symbol id="g9E282593F0D7BA037ECD074EFB3D3A9" overflow="visible">
            <path d="M 0 0m 8.55 27.810001 v -37.710003 c 0 -7.4700003 -0.9899998 -7.6500006 -6.48 -8.099999 c -0.5400001 -0.5400009 -0.5400001 -2.5200005 0 -3.0600014 c 3.7800002 0.09000015 7.56 0.1800003 12.33 0.1800003 c 4.7699995 0 8.46 -0.09000015 12.330001 -0.1800003 c 0.539999 0.5400009 0.539999 2.5200005 0 3.0600014 c -5.49 0.3599987 -6.4800014 0.62999916 -6.4800014 8.099999 v 10.530001 c 1.9800014 -0.99 3.8700008 -1.53 6.0300007 -1.53 c 13.680002 0 22.590002 9 22.590002 22.23 c 0 5.040001 -1.8899994 10.620001 -5.4000015 14.130003 c -3.1500015 3.1499977 -7.6500015 4.5 -12.33 4.5 c -2.6100006 0 -7.470001 -3.1500015 -10.620001 -6.0300026 h -0.539999 c -0.1800003 2.5200005 -0.45000076 4.5 -0.45000076 4.5 c -0.09000015 1.0800018 -0.80999947 1.5300026 -2.0699997 1.5300026 c -3.3300009 -0.9000015 -8.7300005 -2.1599998 -14.940001 -2.9700012 c -0.17999983 -0.5400009 0 -2.3400002 0.18000007 -2.880001 c 4.95 -0.45000076 5.8500004 -1.1699982 5.8500004 -6.299999 Z m 11.7 -21.960001 v 23.04 c 0 0.539999 0 0.9899998 0 1.5300007 c 2.6100006 2.3400002 5.9400005 3.5099983 8.01 3.5099983 c 3.6900005 0 8.01 -4.5 8.01 -15.029999 c 0 -7.5600014 -2.7000008 -16.02 -10.529999 -16.02 c -0.9899998 0 -3.2400017 0.53999996 -5.4900017 2.9700003 Z "/>
        </symbol>
        <symbol id="gF17BEABEDB591A870FDF2A74606BA908" overflow="visible">
            <path d="M 0 0m 26.550001 4.4100003 c 0.62999916 -3.6900003 3.0599995 -5.3100004 7.0199986 -5.3100004 c 4.950001 0 8.460003 1.8900001 11.790001 5.0400004 c -0.1800003 1.0799999 -0.5399971 1.7999997 -1.6199989 2.52 c -1.1699982 -0.9000001 -2.0699997 -1.2600002 -3.7799988 -1.2600002 c -1.9799995 0 -2.5200005 1.6200004 -2.5200005 6.03 l 0.1800003 12.960001 c 0 12.960001 -8.010002 15.570002 -15.390001 15.570002 c -6.5700006 0 -16.650002 -3.7800026 -16.650002 -9.720001 c 0 -2.5200005 1.0799999 -4.5 4.5899997 -4.5 c 3.2400007 0 5.580001 1.9799995 5.580001 4.1399994 c 0 0.45000076 -0.09000015 0.9899998 -0.1800003 1.5300007 c -0.1800003 0.8999996 -0.35999966 1.8000011 -0.1800003 2.6999989 c 0.09000015 0.9900017 0.8100004 2.0699997 3.7799997 2.0699997 c 3.7800007 0 6.9300003 -1.6199989 6.9300003 -13.049999 l -6.029999 -1.8899994 c -9.450001 -2.9700012 -16.11 -5.580001 -16.11 -12.6900015 c 0 -6.21 3.42 -9.45 11.250001 -9.45 c 2.6100006 0 7.83 2.88 10.799999 5.2200003 Z m -0.45000076 15.210001 v -11.880001 c -2.25 -1.8000002 -4.5 -3.2400002 -6.119999 -3.2400002 c -3.8700008 0 -5.220001 2.6100001 -5.220001 5.4000006 c 0 3.33 0.27000046 6.12 6.66 8.19 Z "/>
        </symbol>
        <symbol id="g2F162308DB33CB3A5DDE667560A0A868" overflow="visible">
            <path d="M 0 0m 20.52 10.9800005 v 18.09 c 3.6000004 2.4300003 7.200001 4.2300014 8.820002 4.2300014 c 3.6000004 0 6.300001 -1.6200027 6.300001 -6.750002 v -15.030001 c 0 -7.5600004 -1.4400024 -8.370001 -5.130001 -8.64 c -0.5400009 -0.53999996 -0.5400009 -2.52 0 -3.0600002 c 3.7799988 0.09 6.66 0.18 10.98 0.18 c 4.950001 0 8.91 -0.09 12.779999 -0.18 c 0.5400009 0.54 0.5400009 2.5200002 0 3.0600002 c -5.489998 0.26999998 -6.9300003 1.0799999 -6.9300003 8.64 v 14.040001 c 0 9.900002 -4.2299995 14.400002 -11.969997 14.400002 c -3.6000023 0 -9.990002 -3.960003 -14.940002 -7.380001 c -0.27000046 3.1499977 -0.62999916 5.8499985 -0.62999916 5.8499985 c -0.09000015 1.0800018 -0.80999947 1.5300026 -2.0699997 1.5300026 c -3.3300009 -0.9000015 -8.730001 -2.1599998 -14.9400015 -2.9700012 c -0.18000007 -0.5400009 0 -2.3400002 0.17999983 -2.880001 c 4.95 -0.45000076 5.8500004 -1.1699982 5.8500004 -6.299999 v -16.830002 c 0 -7.4700003 -0.99000025 -7.6500006 -6.4800005 -8.1 c -0.5400001 -0.53999996 -0.5400001 -2.52 0 -3.0600002 c 3.7800002 0.09 7.5600004 0.18 12.330001 0.18 c 4.1400003 0 6.659999 -0.09 10.53 -0.18 c 0.5400009 0.54 0.5400009 2.5200002 0 3.0600002 c -3.7800007 0.36000013 -4.6800003 0.6300001 -4.6800003 8.1 Z "/>
        </symbol>
        <symbol id="g795AB92540B2721C0332C6310D0217DD" overflow="visible">
            <path d="M 0 0m 20.880001 10.9800005 v 17.91 c 0 4.500002 0.3600006 9.539999 0.3600006 9.539999 c 0 0.9900017 -0.8100014 1.5300026 -2.0700016 1.5300026 c -2.5199986 -0.9900017 -9.809999 -1.7100029 -16.02 -2.5200005 c -0.18000007 -0.5400009 0 -2.3400002 0.18000007 -2.880001 c 4.950001 -0.45000076 5.8500004 -1.1699982 5.8500004 -6.300001 v -17.279999 c 0 -7.4700003 -0.9899998 -7.6500006 -6.4800005 -8.1 c -0.53999996 -0.53999996 -0.53999996 -2.52 0 -3.0600002 c 3.7800004 0.09 7.5600004 0.18 12.330001 0.18 c 4.7700005 0 8.460001 -0.09 12.33 -0.18 c 0.5400009 0.54 0.5400009 2.5200002 0 3.0600002 c -5.49 0.36000013 -6.4799995 0.6300001 -6.4799995 8.1 Z m -12.150001 42.660004 c 0 -2.9700012 2.1599998 -5.9400024 5.76 -5.9400024 c 4.05 0 6.3900003 3.2400017 6.3900003 5.580002 c 0 2.7000008 -2.0699997 5.9399986 -5.8500004 5.9399986 c -4.2300005 0 -6.3 -2.8799973 -6.3 -5.579998 Z "/>
        </symbol>
        <symbol id="gB98A96A4CA990D1A29347EB1684F946A" overflow="visible">
            <path d="M 0 0m 37.980003 7.8300004 c 0 1.0800004 -0.1800003 2.7900004 -1.170002 2.7900004 c -3.5999985 -3.3300004 -6.66 -5.0400004 -9.27 -5.0400004 c -6.75 0 -12.06 4.86 -12.06 15.660002 c 0 9.99 2.250001 14.939999 7.0199995 14.939999 c 3.3300018 0 4.6800003 -3.5099983 4.950001 -6.3899994 c 0.27000046 -2.4300003 2.7000008 -4.2299995 5.580002 -4.2299995 c 2.8799973 0 4.950001 2.25 4.950001 5.039999 c 0 4.050001 -4.8600006 9.3600025 -14.670002 9.3600025 c -10.620001 0 -19.980001 -8.550001 -19.980001 -21.870003 c 0 -5.8499994 2.07 -10.98 5.580001 -14.309999 c 3.5099993 -3.3300002 7.6500006 -4.6800003 14.04 -4.6800003 c 5.3999996 0 11.610001 3.7800002 15.030003 8.7300005 Z "/>
        </symbol>
        <symbol id="g4B89F5E95DB50D8AE9AD926099F1D62E" overflow="visible">
            <path d="M 0 0m 4.32 13.14 c 0.36000013 -4.41 0.80999994 -8.64 1.5300002 -12.06 c 1.71 -0.54 7.4700003 -1.98 12.51 -1.98 c 6.9300003 0 15.57 3.7800002 15.57 11.61 c 0 3.0600004 -0.7199974 5.4900007 -2.789999 7.7400007 c -2.5200005 2.8799992 -6.300001 5.130001 -10.440001 6.9300003 c -3.6000004 1.5300007 -4.8600006 4.41 -4.8600006 7.0200005 c 0 2.0699997 1.710001 3.7799988 4.3199997 3.7799988 c 3.1500015 0 6.210001 -2.8799973 8.460001 -8.369999 c 1.6200008 -0.27000046 2.6100006 -0.1800003 3.5100002 0.44999886 c 0 3.2400017 -0.3600006 6.6600018 -1.1700001 9.540003 c -2.8799992 1.2599983 -5.129999 2.1599998 -10.08 2.1599998 c -4.7700005 0 -9.27 -1.800003 -12.150001 -4.6800003 c -2.0700002 -2.0699997 -3.0600004 -4.590002 -3.0600004 -7.0200024 c 0 -2.6999989 1.0800004 -4.8599987 2.79 -6.75 c 2.79 -3.0599995 7.7400007 -6.21 10.4400015 -7.4699993 c 3.5999985 -1.6200008 4.59 -4.8600006 4.59 -7.0200005 c 0 -2.88 -2.880001 -4.4100003 -5.3100014 -4.4100003 c -4.05 0 -8.37 4.1400003 -10.26 10.710001 c -1.4399996 0.2699995 -2.1599998 0.1800003 -3.6 -0.1800003 Z "/>
        </symbol>
        <symbol id="g1F27B3B59BA0507B51E4591C51A20B1" overflow="visible">
            <path d="M 0 0m 25.11 22.59 c 0 4.050001 -0.44999886 24.300003 -20.880001 41.94 l -2.6999998 -2.8799973 c 2.88 -3.2399979 13.2300005 -15.299999 13.2300005 -39.06 c 0 -23.76 -10.530001 -35.82 -13.2300005 -38.97 l 2.52 -3.0599995 c 11.79 10.17 21.060001 25.650002 21.060001 42.03 Z "/>
        </symbol>
    </defs>
</svg>

<svg class="typst-doc" viewBox="0 0 595.2755905511812 841.8897637795276" width="595.2755905511812pt" height="841.8897637795276pt" xmlns="http://www.w3.org/2000/svg" xmlns:xlink="http://www.w3.org/1999/xlink" xmlns:h5="http://www.w3.org/1999/xhtml">
    <path class="typst-shape" fill="#ffffff" fill-rule="nonzero" d="M 0 0 L 0 841.8898 L 595.2756 841.8898 L 595.2756 0 Z "/>
    <g>
        <g transform="translate(138.42779527559057 449.96988188976377)">
            <g class="typst-text" transform="scale(1, -1)">
                <use xlink:href="#g1E16481EF9856FFC0F18069420D2E10F" x="0" fill="#ff4136" fill-rule="nonzero"/>
                <use xlink:href="#g32026F2BB0C1217E315C8C0A4DF31D6F" x="28.349999999999998" fill="#ff4136" fill-rule="nonzero"/>
                <use xlink:href="#g977D0B7938C71B0C9774B2323656E88" x="80.64" fill="#ff4136" fill-rule="nonzero"/>
                <use xlink:href="#g2AC285B2A40E1E948F09D2A9B2DD413F" x="126.18" fill="#ff4136" fill-rule="nonzero"/>
                <use xlink:href="#gAC9BB61F25D7AEC4F485FD780F26369E" x="181.62" fill="#ff4136" fill-rule="nonzero"/>
                <use xlink:href="#gE36E8EFF387AEDD152D7FE821431A403" x="210.6" fill="#ff4136" fill-rule="nonzero"/>
                <use xlink:href="#gA4A95C8BF5AD0959EC38C98F8EFD9F71" x="251.64" fill="#ff4136" fill-rule="nonzero"/>
                <use xlink:href="#gCB7BC8B4CC709ACDA931E815A994A55C" x="290.07" fill="#ff4136" fill-rule="nonzero"/>
            </g>
        </g>
    </g>
    <defs id="glyph">
        <symbol id="g1E16481EF9856FFC0F18069420D2E10F" overflow="visible">
            <path d="M 3.2400002 22.77 C 3.2400002 18.720001 3.69 -1.5300001 24.12 -19.17 L 26.820002 -16.29 C 23.94 -13.05 13.59 -0.99 13.59 22.77 C 13.59 46.530003 24.12 58.590004 26.820002 61.74 L 24.300001 64.8 C 12.51 54.63 3.2400002 39.15 3.2400002 22.77 Z "/>
        </symbol>
        <symbol id="g32026F2BB0C1217E315C8C0A4DF31D6F" overflow="visible">
            <path d="M 8.55 27.810001 L 8.55 -9.900001 C 8.55 -17.37 7.5600004 -17.550001 2.0700002 -18 C 1.5300001 -18.54 1.5300001 -20.52 2.0700002 -21.060001 C 5.8500004 -20.970001 9.63 -20.880001 14.400001 -20.880001 C 19.17 -20.880001 22.86 -20.970001 26.730001 -21.060001 C 27.27 -20.52 27.27 -18.54 26.730001 -18 C 21.240002 -17.640001 20.25 -17.37 20.25 -9.900001 L 20.25 0.63 C 22.230001 -0.36 24.12 -0.90000004 26.28 -0.90000004 C 39.960003 -0.90000004 48.870003 8.1 48.870003 21.33 C 48.870003 26.37 46.980003 31.95 43.47 35.460003 C 40.32 38.61 35.82 39.960003 31.140001 39.960003 C 28.53 39.960003 23.67 36.81 20.52 33.93 L 19.980001 33.93 C 19.800001 36.45 19.53 38.43 19.53 38.43 C 19.44 39.510002 18.720001 39.960003 17.460001 39.960003 C 14.13 39.06 8.7300005 37.800003 2.52 36.99 C 2.3400002 36.45 2.52 34.65 2.7 34.11 C 7.65 33.66 8.55 32.940002 8.55 27.810001 Z M 20.25 5.8500004 L 20.25 28.890001 C 20.25 29.43 20.25 29.880001 20.25 30.420002 C 22.86 32.760002 26.19 33.93 28.26 33.93 C 31.95 33.93 36.27 29.43 36.27 18.900002 C 36.27 11.34 33.57 2.88 25.740002 2.88 C 24.750002 2.88 22.5 3.42 20.25 5.8500004 Z "/>
        </symbol>
        <symbol id="g977D0B7938C71B0C9774B2323656E88" overflow="visible">
            <path d="M 26.550001 4.4100003 C 27.18 0.72 29.61 -0.90000004 33.57 -0.90000004 C 38.52 -0.90000004 42.030003 0.99 45.36 4.1400003 C 45.18 5.2200003 44.820004 5.94 43.74 6.6600003 C 42.570004 5.76 41.670002 5.4 39.960003 5.4 C 37.980003 5.4 37.440002 7.0200005 37.440002 11.43 L 37.620003 24.390001 C 37.620003 37.350002 29.61 39.960003 22.230001 39.960003 C 15.660001 39.960003 5.5800004 36.18 5.5800004 30.240002 C 5.5800004 27.720001 6.6600003 25.740002 10.17 25.740002 C 13.410001 25.740002 15.750001 27.720001 15.750001 29.880001 C 15.750001 30.330002 15.660001 30.87 15.570001 31.410002 C 15.39 32.31 15.210001 33.210003 15.39 34.11 C 15.4800005 35.100002 16.2 36.18 19.17 36.18 C 22.95 36.18 26.1 34.56 26.1 23.130001 L 20.070002 21.240002 C 10.620001 18.27 3.96 15.660001 3.96 8.55 C 3.96 2.3400002 7.38 -0.90000004 15.210001 -0.90000004 C 17.820002 -0.90000004 23.04 1.98 26.01 4.32 Z M 26.1 19.62 L 26.1 7.7400002 C 23.85 5.94 21.6 4.5 19.980001 4.5 C 16.11 4.5 14.76 7.11 14.76 9.900001 C 14.76 13.2300005 15.030001 16.02 21.42 18.09 Z "/>
        </symbol>
        <symbol id="g2AC285B2A40E1E948F09D2A9B2DD413F" overflow="visible">
            <path d="M 20.52 10.9800005 L 20.52 29.070002 C 24.12 31.500002 27.720001 33.300003 29.340002 33.300003 C 32.940002 33.300003 35.640003 31.68 35.640003 26.550001 L 35.640003 11.52 C 35.640003 3.96 34.2 3.15 30.510002 2.88 C 29.970001 2.3400002 29.970001 0.36 30.510002 -0.18 C 34.29 -0.09 37.170002 0 41.49 0 C 46.440002 0 50.4 -0.09 54.27 -0.18 C 54.81 0.36 54.81 2.3400002 54.27 2.88 C 48.780003 3.15 47.34 3.96 47.34 11.52 L 47.34 25.560001 C 47.34 35.460003 43.11 39.960003 35.370003 39.960003 C 31.77 39.960003 25.380001 36 20.43 32.58 C 20.16 35.73 19.800001 38.43 19.800001 38.43 C 19.710001 39.510002 18.990002 39.960003 17.730001 39.960003 C 14.400001 39.06 9 37.800003 2.7900002 36.99 C 2.6100001 36.45 2.7900002 34.65 2.97 34.11 C 7.92 33.66 8.820001 32.940002 8.820001 27.810001 L 8.820001 10.9800005 C 8.820001 3.5100002 7.8300004 3.3300002 2.3400002 2.88 C 1.8000001 2.3400002 1.8000001 0.36 2.3400002 -0.18 C 6.1200004 -0.09 9.900001 0 14.670001 0 C 18.810001 0 21.33 -0.09 25.2 -0.18 C 25.740002 0.36 25.740002 2.3400002 25.2 2.88 C 21.42 3.2400002 20.52 3.5100002 20.52 10.9800005 Z "/>
        </symbol>
        <symbol id="gAC9BB61F25D7AEC4F485FD780F26369E" overflow="visible">
            <path d="M 20.880001 10.9800005 L 20.880001 28.890001 C 20.880001 33.390003 21.240002 38.43 21.240002 38.43 C 21.240002 39.420002 20.43 39.960003 19.17 39.960003 C 16.650002 38.97 9.360001 38.25 3.15 37.440002 C 2.97 36.9 3.15 35.100002 3.3300002 34.56 C 8.280001 34.11 9.18 33.390003 9.18 28.26 L 9.18 10.9800005 C 9.18 3.5100002 8.190001 3.3300002 2.7 2.88 C 2.16 2.3400002 2.16 0.36 2.7 -0.18 C 6.4800005 -0.09 10.26 0 15.030001 0 C 19.800001 0 23.490002 -0.09 27.36 -0.18 C 27.900002 0.36 27.900002 2.3400002 27.36 2.88 C 21.87 3.2400002 20.880001 3.5100002 20.880001 10.9800005 Z M 8.7300005 53.640003 C 8.7300005 50.670002 10.89 47.7 14.490001 47.7 C 18.54 47.7 20.880001 50.940002 20.880001 53.280003 C 20.880001 55.980003 18.810001 59.22 15.030001 59.22 C 10.8 59.22 8.7300005 56.340004 8.7300005 53.640003 Z "/>
        </symbol>
        <symbol id="gE36E8EFF387AEDD152D7FE821431A403" overflow="visible">
            <path d="M 37.980003 7.8300004 C 37.980003 8.910001 37.800003 10.620001 36.81 10.620001 C 33.210003 7.2900004 30.150002 5.5800004 27.54 5.5800004 C 20.79 5.5800004 15.4800005 10.440001 15.4800005 21.240002 C 15.4800005 31.230001 17.730001 36.18 22.5 36.18 C 25.830002 36.18 27.18 32.670002 27.45 29.79 C 27.720001 27.36 30.150002 25.560001 33.030003 25.560001 C 35.91 25.560001 37.980003 27.810001 37.980003 30.6 C 37.980003 34.65 33.120003 39.960003 23.310001 39.960003 C 12.690001 39.960003 3.3300002 31.410002 3.3300002 18.09 C 3.3300002 12.240001 5.4 7.11 8.910001 3.7800002 C 12.42 0.45000002 16.560001 -0.90000004 22.95 -0.90000004 C 28.35 -0.90000004 34.56 2.88 37.980003 7.8300004 Z "/>
        </symbol>
        <symbol id="gA4A95C8BF5AD0959EC38C98F8EFD9F71" overflow="visible">
            <path d="M 4.32 13.14 C 4.6800003 8.7300005 5.13 4.5 5.8500004 1.08 C 7.5600004 0.54 13.320001 -0.90000004 18.36 -0.90000004 C 25.29 -0.90000004 33.93 2.88 33.93 10.71 C 33.93 13.77 33.210003 16.2 31.140001 18.45 C 28.62 21.33 24.84 23.580002 20.7 25.380001 C 17.1 26.910002 15.84 29.79 15.84 32.4 C 15.84 34.47 17.550001 36.18 20.16 36.18 C 23.310001 36.18 26.37 33.300003 28.62 27.810001 C 30.240002 27.54 31.230001 27.630001 32.13 28.26 C 32.13 31.500002 31.77 34.920002 30.960001 37.800003 C 28.080002 39.06 25.830002 39.960003 20.880001 39.960003 C 16.11 39.960003 11.610001 38.16 8.7300005 35.280003 C 6.6600003 33.210003 5.67 30.69 5.67 28.26 C 5.67 25.560001 6.7500005 23.400002 8.46 21.51 C 11.25 18.45 16.2 15.3 18.900002 14.040001 C 22.5 12.42 23.490002 9.18 23.490002 7.0200005 C 23.490002 4.1400003 20.61 2.6100001 18.18 2.6100001 C 14.13 2.6100001 9.81 6.7500005 7.92 13.320001 C 6.4800005 13.59 5.76 13.500001 4.32 13.14 Z "/>
        </symbol>
        <symbol id="gCB7BC8B4CC709ACDA931E815A994A55C" overflow="visible">
            <path d="M 25.11 22.59 C 25.11 26.640001 24.660002 46.890003 4.23 64.53 L 1.5300001 61.65 C 4.4100003 58.410004 14.76 46.350002 14.76 22.59 C 14.76 -1.1700001 4.23 -13.2300005 1.5300001 -16.380001 L 4.05 -19.44 C 15.84 -9.27 25.11 6.21 25.11 22.59 Z "/>
        </symbol>
    </defs>
</svg>
